web/ui/src/components/theme/button/svgs/warning.svg

<svg fill="none" height="16" viewBox="0 0 16 16" width="16" xmlns="http://www.w3.org/2000/svg"><path clip-rule="evenodd" d="m8.86526 3.16158c-.38516-.66529-1.34568-.66529-1.73085 0l-5.59888 9.67082c-.38597.6666.09509 1.501.86542 1.501h11.19775c.7704 0 1.2514-.8344.8655-1.501z" fill="#ec4d4d" fill-rule="evenodd"/><g fill="#fff"><path d="m8.00016 11c.36819 0 .66667.2985.66667.6667v.3333c0 .3682-.29848.6667-.66667.6667s-.66666-.2985-.66666-.6667v-.3333c0-.3682.29847-.6667.66666-.6667z"/><path d="m7.99961 5.66675c.36819-.00031.66691.29792.66722.66611l.00277 3.33317c.0003.36817-.29793.66687-.66612.66717-.36819.0004-.66691-.2979-.66722-.66607l-.00276-3.33316c-.00031-.36819.29792-.66692.66611-.66722z"/></g></svg>

<svg width="16" height="16" viewBox="0 0 16 16" fill="none" xmlns="http://www.w3.org/2000/svg">
<path fill-rule="evenodd" clip-rule="evenodd" d="M8.86526 3.16158C8.4801 2.49629 7.51958 2.49629 7.13441 3.16158L1.53553 12.8324C1.14956 13.499 1.63062 14.3334 2.40095 14.3334H13.5987C14.3691 14.3334 14.8501 13.499 14.4642 12.8324L8.86526 3.16158Z" fill="#EC4D4D"/>
<path d="M8.00016 11C8.36835 11 8.66683 11.2985 8.66683 11.6667V12C8.66683 12.3682 8.36835 12.6667 8.00016 12.6667C7.63197 12.6667 7.3335 12.3682 7.3335 12V11.6667C7.3335 11.2985 7.63197 11 8.00016 11Z" fill="white"/>
<path d="M7.99961 5.66675C8.3678 5.66644 8.66652 5.96467 8.66683 6.33286L8.6696 9.66603C8.6699 10.0342 8.37167 10.3329 8.00348 10.3332C7.63529 10.3336 7.33657 10.0353 7.33626 9.66713L7.3335 6.33397C7.33319 5.96578 7.63142 5.66705 7.99961 5.66675Z" fill="white"/>
</svg>
